img/how-we-are-working-image-three.svg

<svg xmlns="http://www.w3.org/2000/svg" width="2.858cm" height="2.858cm">
  <path fill="#F49E9C" fill-rule="evenodd" d="M78.914 35.559l-17.21 17.222v21.1c0 3.925-3.193 7.119-7.12 7.119H7.119c-3.926 0-7.12-3.194-7.12-7.119V7.119C-.001 3.194 3.193 0 7.119 0h40.753c1.902 0 3.69.74 5.034 2.085l6.713 6.712a7.07 7.07 0 0 1 2.085 5.034v18.806l7.141-7.146c2.776-2.776 7.294-2.776 10.069 0a7.115 7.115 0 0 1 0 10.068zM56.263 12.153L49.55 5.441c-.773-.773-1.637-.695-2.085-.695v9.492h9.493c0-.506.058-1.332-.695-2.085zm.695 6.831H45.091a2.373 2.373 0 0 1-2.373-2.373V4.746H7.119a2.376 2.376 0 0 0-2.373 2.373v66.762a2.376 2.376 0 0 0 2.373 2.373h47.465a2.376 2.376 0 0 0 2.374-2.373V57.529l-.288.288c-.261.26-.578.456-.928.573l-10.069 3.356a2.373 2.373 0 0 1-3.001-3.002l3.355-10.068c.117-.349.314-.667.574-.927l3.355-3.355 7.002-7.007V18.984zm-1.966 33.799l-3.356-3.356-1.283 1.282-1.678 5.034 5.035-1.678 1.282-1.282zm11.407-18.13L54.991 46.07l3.356 3.356 11.408-11.417-3.356-3.356zm9.159-5.806a2.375 2.375 0 0 0-3.356 0l-2.447 2.449 3.356 3.356 2.446-2.449a2.37 2.37 0 0 0 .001-3.356zm-30.467-.371H11.866a2.373 2.373 0 1 1 0-4.746h33.225a2.374 2.374 0 1 1 0 4.746zm-33.225 4.746h23.732a2.374 2.374 0 1 1 0 4.747H11.866a2.374 2.374 0 0 1 0-4.747zm0 9.493h23.732a2.373 2.373 0 1 1 0 4.746H11.866a2.374 2.374 0 1 1 0-4.746zm0 9.492h23.732a2.373 2.373 0 1 1 0 4.746H11.866a2.373 2.373 0 1 1 0-4.746zm18.986 14.555h14.239a2.373 2.373 0 1 1 0 4.746H30.852a2.373 2.373 0 0 1 0-4.746z"/>
</svg>

<svg
 xmlns="http://www.w3.org/2000/svg"
 xmlns:xlink="http://www.w3.org/1999/xlink"
 width="2.858cm" height="2.858cm">
<path fill-rule="evenodd"  fill="rgb(244, 158, 156)"
 d="M78.914,35.559 L61.704,52.781 L61.704,73.881 C61.704,77.806 58.511,81.000 54.584,81.000 L7.119,81.000 C3.193,81.000 -0.001,77.806 -0.001,73.881 L-0.001,7.119 C-0.001,3.194 3.193,-0.000 7.119,-0.000 L47.872,-0.000 C49.774,-0.000 51.562,0.740 52.906,2.085 L59.619,8.797 C60.964,10.142 61.704,11.929 61.704,13.831 L61.704,32.637 C62.538,31.803 67.991,26.346 68.845,25.491 C71.621,22.715 76.139,22.715 78.914,25.491 C81.697,28.273 81.696,32.776 78.914,35.559 ZM56.263,12.153 L49.550,5.441 C48.777,4.668 47.913,4.746 47.465,4.746 L47.465,14.238 L56.958,14.238 C56.958,13.732 57.016,12.906 56.263,12.153 ZM56.958,18.984 L45.091,18.984 C43.781,18.984 42.718,17.922 42.718,16.611 L42.718,4.746 L7.119,4.746 C5.811,4.746 4.746,5.810 4.746,7.119 L4.746,73.881 C4.746,75.189 5.811,76.254 7.119,76.254 L54.584,76.254 C55.894,76.254 56.958,75.189 56.958,73.881 L56.958,57.529 L56.670,57.817 C56.409,58.077 56.092,58.273 55.742,58.390 L45.673,61.746 C44.822,62.030 43.881,61.809 43.245,61.173 C42.609,60.537 42.387,59.597 42.672,58.744 L46.027,48.676 C46.144,48.327 46.341,48.009 46.601,47.749 L49.956,44.394 C49.956,44.394 56.958,37.387 56.958,37.387 L56.958,18.984 ZM54.992,52.783 L51.636,49.427 L50.353,50.709 L48.675,55.743 L53.710,54.065 L54.992,52.783 ZM66.399,34.653 C64.716,36.338 56.778,44.282 54.991,46.070 L58.347,49.426 L69.755,38.009 L66.399,34.653 ZM75.558,28.847 C74.633,27.922 73.127,27.921 72.202,28.847 L69.755,31.296 L73.111,34.652 L75.557,32.203 C76.488,31.272 76.483,29.772 75.558,28.847 ZM45.091,28.476 L11.866,28.476 C10.555,28.476 9.492,27.414 9.492,26.103 C9.492,24.793 10.555,23.730 11.866,23.730 L45.091,23.730 C46.402,23.730 47.465,24.793 47.465,26.103 C47.465,27.414 46.402,28.476 45.091,28.476 ZM11.866,33.222 L35.598,33.222 C36.909,33.222 37.972,34.285 37.972,35.595 C37.972,36.906 36.909,37.969 35.598,37.969 L11.866,37.969 C10.555,37.969 9.492,36.906 9.492,35.595 C9.492,34.285 10.555,33.222 11.866,33.222 ZM11.866,42.715 L35.598,42.715 C36.909,42.715 37.972,43.777 37.972,45.088 C37.972,46.398 36.909,47.461 35.598,47.461 L11.866,47.461 C10.555,47.461 9.492,46.398 9.492,45.088 C9.492,43.777 10.555,42.715 11.866,42.715 ZM11.866,52.207 L35.598,52.207 C36.909,52.207 37.972,53.269 37.972,54.580 C37.972,55.891 36.909,56.953 35.598,56.953 L11.866,56.953 C10.555,56.953 9.492,55.891 9.492,54.580 C9.492,53.269 10.555,52.207 11.866,52.207 ZM30.852,66.762 L45.091,66.762 C46.402,66.762 47.465,67.824 47.465,69.135 C47.465,70.445 46.402,71.508 45.091,71.508 L30.852,71.508 C29.541,71.508 28.479,70.445 28.479,69.135 C28.479,67.824 29.541,66.762 30.852,66.762 Z"/>
</svg>
